modules/feathericon/icons/align-vertically.svg

<svg width="12" height="14" viewBox="0 0 12 14" xmlns="http://www.w3.org/2000/svg"><path d="M5 0H2v6H0v2h2v6h3V8h2v4h3V8h2V6h-2V2H7v4H5V0z" fill="#000" fill-rule="evenodd"/></svg>

<?xml version="1.0" encoding="UTF-8"?>
<svg width="12px" height="14px" viewBox="0 0 12 14" version="1.1" xmlns="http://www.w3.org/2000/svg" xmlns:xlink="http://www.w3.org/1999/xlink">
    <!-- Generator: sketchtool 48.1 (47250) - http://www.bohemiancoding.com/sketch -->
    <title>align-vertically</title>
    <desc>Created with sketchtool.</desc>
    <defs></defs>
    <g id="production" stroke="none" stroke-width="1" fill="none" fill-rule="evenodd">
        <g id="align-vertically" fill="#000000">
            <path d="M5,0 L2,0 L2,6 L0,6 L0,8 L2,8 L2,14 L5,14 L5,8 L7,8 L7,12 L10,12 L10,8 L12,8 L12,6 L10,6 L10,2 L7,2 L7,6 L5,6 L5,0 Z" id="Shape"></path>
        </g>
    </g>
</svg>
